public/img/socials-dark-ig.svg

<svg width="32" height="32" viewBox="0 0 32 32" fill="none" xmlns="http://www.w3.org/2000/svg">
<path d="M15.9982 11.8357C13.7044 11.8357 11.8326 13.7076 11.8326 16.0013C11.8326 18.2951 13.7044 20.1669 15.9982 20.1669C18.2919 20.1669 20.1638 18.2951 20.1638 16.0013C20.1638 13.7076 18.2919 11.8357 15.9982 11.8357ZM28.4919 16.0013C28.4919 14.2763 28.5076 12.5669 28.4107 10.8451C28.3138 8.84507 27.8576 7.07007 26.3951 5.60757C24.9294 4.14194 23.1576 3.68882 21.1576 3.59195C19.4326 3.49507 17.7232 3.5107 16.0013 3.5107C14.2763 3.5107 12.5669 3.49507 10.8451 3.59195C8.84507 3.68882 7.07007 4.14507 5.60757 5.60757C4.14195 7.07319 3.68882 8.84507 3.59195 10.8451C3.49507 12.5701 3.5107 14.2794 3.5107 16.0013C3.5107 17.7232 3.49507 19.4357 3.59195 21.1576C3.68882 23.1576 4.14507 24.9326 5.60757 26.3951C7.0732 27.8607 8.84507 28.3138 10.8451 28.4107C12.5701 28.5076 14.2794 28.4919 16.0013 28.4919C17.7263 28.4919 19.4357 28.5076 21.1576 28.4107C23.1576 28.3138 24.9326 27.8576 26.3951 26.3951C27.8607 24.9294 28.3138 23.1576 28.4107 21.1576C28.5107 19.4357 28.4919 17.7263 28.4919 16.0013ZM15.9982 22.4107C12.4513 22.4107 9.58882 19.5482 9.58882 16.0013C9.58882 12.4544 12.4513 9.59194 15.9982 9.59194C19.5451 9.59194 22.4076 12.4544 22.4076 16.0013C22.4076 19.5482 19.5451 22.4107 15.9982 22.4107ZM22.6701 10.8263C21.8419 10.8263 21.1732 10.1576 21.1732 9.32944C21.1732 8.50132 21.8419 7.83257 22.6701 7.83257C23.4982 7.83257 24.1669 8.50132 24.1669 9.32944C24.1672 9.52609 24.1286 9.72085 24.0535 9.90257C23.9784 10.0843 23.8681 10.2494 23.7291 10.3884C23.59 10.5275 23.4249 10.6377 23.2432 10.7129C23.0615 10.788 22.8667 10.8266 22.6701 10.8263Z" fill="black"/>
</svg>

<svg width="32" height="32" fill="none" xmlns="http://www.w3.org/2000/svg"><path d="M15.998 11.836A4.174 4.174 0 0011.833 16a4.174 4.174 0 004.165 4.166A4.174 4.174 0 0020.164 16a4.174 4.174 0 00-4.166-4.165zM28.492 16c0-1.725.016-3.434-.081-5.156-.097-2-.553-3.775-2.016-5.237-1.466-1.466-3.237-1.92-5.237-2.016-1.725-.097-3.435-.081-5.157-.081-1.725 0-3.434-.016-5.156.081-2 .097-3.775.553-5.237 2.016-1.466 1.465-1.92 3.237-2.016 5.237-.097 1.725-.081 3.434-.081 5.156 0 1.722-.016 3.435.081 5.157.097 2 .553 3.775 2.016 5.237 1.465 1.466 3.237 1.919 5.237 2.016 1.725.097 3.434.08 5.156.08 1.725 0 3.435.017 5.157-.08 2-.097 3.775-.553 5.237-2.016 1.466-1.466 1.919-3.237 2.016-5.237.1-1.722.08-3.432.08-5.157zm-12.494 6.41A6.4 6.4 0 019.588 16a6.4 6.4 0 016.41-6.41 6.4 6.4 0 016.41 6.41 6.4 6.4 0 01-6.41 6.41zm6.672-11.585a1.495 1.495 0 01-1.497-1.497c0-.828.669-1.496 1.497-1.496a1.495 1.495 0 011.383 2.07 1.494 1.494 0 01-1.383.923z" fill="#000"/></svg>
